assets/icons/qvision/casino.svg

<svg xmlns="http://www.w3.org/2000/svg" height="24" viewBox="0 0 24 24" width="24"><path d="M0 0h24v24H0zm21.02 19c0 1.1-.9 2-2 2h-14c-1.1 0-2-.9-2-2V5c0-1.1.9-2 2-2h14c1.1 0 2 .9 2 2v14z" fill="none"/><path d="M19 3H5c-1.1 0-2 .9-2 2v14c0 1.1.9 2 2 2h14c1.1 0 2-.9 2-2V5c0-1.1-.9-2-2-2zM7.5 18c-.83 0-1.5-.67-1.5-1.5S6.67 15 7.5 15s1.5.67 1.5 1.5S8.33 18 7.5 18zm0-9C6.67 9 6 8.33 6 7.5S6.67 6 7.5 6 9 6.67 9 7.5 8.33 9 7.5 9zm4.5 4.5c-.83 0-1.5-.67-1.5-1.5s.67-1.5 1.5-1.5 1.5.67 1.5 1.5-.67 1.5-1.5 1.5zm4.5 4.5c-.83 0-1.5-.67-1.5-1.5s.67-1.5 1.5-1.5 1.5.67 1.5 1.5-.67 1.5-1.5 1.5zm0-9c-.83 0-1.5-.67-1.5-1.5S15.67 6 16.5 6s1.5.67 1.5 1.5S17.33 9 16.5 9z"/></svg>

<svg width="24" height="24" viewBox="0 0 24 24" fill="none" xmlns="http://www.w3.org/2000/svg">
<g clip-path="url(#clip0_147_6128)">
<path d="M19 3H5C3.9 3 3 3.9 3 5V19C3 20.1 3.9 21 5 21H19C20.1 21 21 20.1 21 19V5C21 3.9 20.1 3 19 3ZM7.5 18C6.67 18 6 17.33 6 16.5C6 15.67 6.67 15 7.5 15C8.33 15 9 15.67 9 16.5C9 17.33 8.33 18 7.5 18ZM7.5 9C6.67 9 6 8.33 6 7.5C6 6.67 6.67 6 7.5 6C8.33 6 9 6.67 9 7.5C9 8.33 8.33 9 7.5 9ZM12 13.5C11.17 13.5 10.5 12.83 10.5 12C10.5 11.17 11.17 10.5 12 10.5C12.83 10.5 13.5 11.17 13.5 12C13.5 12.83 12.83 13.5 12 13.5ZM16.5 18C15.67 18 15 17.33 15 16.5C15 15.67 15.67 15 16.5 15C17.33 15 18 15.67 18 16.5C18 17.33 17.33 18 16.5 18ZM16.5 9C15.67 9 15 8.33 15 7.5C15 6.67 15.67 6 16.5 6C17.33 6 18 6.67 18 7.5C18 8.33 17.33 9 16.5 9Z" fill="#323232"/>
</g>
<defs>
<clipPath id="clip0_147_6128">
<rect width="24" height="24" fill="white"/>
</clipPath>
</defs>
</svg>
